assets/img/icons/brain.svg

<svg fill="none" height="64" viewBox="0 0 64 64" width="64" xmlns="http://www.w3.org/2000/svg" xmlns:xlink="http://www.w3.org/1999/xlink"><mask id="a" fill="#fff"><path clip-rule="evenodd" d="m10.4765 18.2919c.2172-.5632.4602-1.1134.7275-1.6495.1683-3.8269 3.0253-6.95541 6.7283-7.54313 3.0101-1.96025 6.604-3.09927 10.4639-3.09927 2.6509 0 4.8 2.14903 4.8 4.8v37.6545c0 .2481-.0138.4929-.0407.7338.0269.2669.0407.5377.0407.8117 0 4.4183-3.5818 8-8 8-3.5592 0-6.5755-2.3242-7.6139-5.5377-.2478-.1509-.4915-.3079-.731-.4707-3.7058-.1797-6.6551-3.2412-6.6551-6.9916 0-.263.0145-.5227.0427-.7782-1.81693-1.0312-3.04273-2.9833-3.04273-5.2218 0-1.2837.40316-2.4733 1.08977-3.449-1.27949-1.1004-2.08977-2.7311-2.08977-4.551 0-2.1245 1.10419-3.9911 2.76998-5.0573-.49026-.8694-.76998-1.8734-.76998-2.9427 0-1.9087.89124-3.6092 2.28033-4.7081z" fill="#fff" fill-rule="evenodd"/></mask><mask id="b" fill="#fff"><path clip-rule="evenodd" d="m53.7197 18.2919c-.2172-.5632-.4602-1.1134-.7275-1.6495-.1684-3.8269-3.0253-6.95541-6.7283-7.54313-3.0101-1.96025-6.604-3.09927-10.4639-3.09927-2.651 0-4.8 2.14903-4.8 4.8v37.6545c0 .2481.0138.4929.0407.7338-.0269.2669-.0407.5377-.0407.8117 0 4.4183 3.5817 8 8 8 3.5591 0 6.5754-2.3242 7.6139-5.5377.2478-.1509.4915-.3079.731-.4707 3.7058-.1797 6.6551-3.2412 6.6551-6.9916 0-.263-.0145-.5227-.0428-.7782 1.817-1.0312 3.0428-2.9833 3.0428-5.2218 0-1.2837-.4032-2.4733-1.0898-3.449 1.2795-1.1004 2.0898-2.7311 2.0898-4.551 0-2.1245-1.1042-3.9911-2.77-5.0573.4903-.8694.77-1.8734.77-2.9427 0-1.9087-.8912-3.6092-2.2803-4.7081z" fill="#fff" fill-rule="evenodd"/></mask><path clip-rule="evenodd" d="m10.4765 18.2919c.2172-.5632.4602-1.1134.7275-1.6495.1683-3.8269 3.0253-6.95541 6.7283-7.54313 3.0101-1.96025 6.604-3.09927 10.4639-3.09927 2.6509 0 4.8 2.14903 4.8 4.8v37.6545c0 .2481-.0138.4929-.0407.7338.0269.2669.0407.5377.0407.8117 0 4.4183-3.5818 8-8 8-3.5592 0-6.5755-2.3242-7.6139-5.5377-.2478-.1509-.4915-.3079-.731-.4707-3.7058-.1797-6.6551-3.2412-6.6551-6.9916 0-.263.0145-.5227.0427-.7782-1.81693-1.0312-3.04273-2.9833-3.04273-5.2218 0-1.2837.40316-2.4733 1.08977-3.449-1.27949-1.1004-2.08977-2.7311-2.08977-4.551 0-2.1245 1.10419-3.9911 2.76998-5.0573-.49026-.8694-.76998-1.8734-.76998-2.9427 0-1.9087.89124-3.6092 2.28033-4.7081z" fill="#fff" fill-rule="evenodd"/><path d="m11.204 16.6424 1.7898.8926.1896-.3802.0187-.4245zm-.7275 1.6495 1.2408 1.5685.4285-.339.1966-.5097zm7.4558-9.19263.3135 1.97523.4208-.0667.3571-.2326zm15.2232 40.08903-1.9877-.2217-.0235.211.0213.2112zm-15.5732 3.274 1.9031-.615-.2284-.7066-.6342-.3864zm-.731-.4707 1.1242-1.6541-.4653-.3162-.562-.0273zm-6.6124-7.7698 1.9879.2199.1448-1.3092-1.1455-.6501zm-1.95296-8.6708 1.63561 1.151 1.04435-1.4841-1.37588-1.1833zm.68021-9.6083 1.07815 1.6846 1.5929-1.0195-.9289-1.6474zm.4481-10.1929c-.29529.5921-.56375 1.2-.80377 1.8222l3.73192 1.4397c.1945-.5041.412-.9967.6514-1.4767zm8.20455-8.6258c-4.631.73499-8.20228 4.6434-8.41285 9.4305l3.99615.1758c.1261-2.8667 2.2686-5.2153 5.0437-5.6558zm10.7774-3.124c-4.2591 0-8.2304 1.25802-11.5553 3.42333l2.1828 3.35187c2.6952-1.75519 5.9117-2.7752 9.3725-2.7752zm6.8 6.8c0-3.75554-3.0445-6.8-6.8-6.8v4c1.5464 0 2.8 1.2536 2.8 2.8zm0 37.6545v-37.6545h-4v37.6545zm-.053.9556c.035-.3144.053-.6333.053-.9556h-4c0 .1739-.0097.3447-.0284.5121zm.053.5899c0-.3411-.0172-.6788-.0508-1.0122l-3.9798.401c.0202.2004.0306.4043.0306.6112zm-10 10c5.5228 0 10-4.4772 10-10h-4c0 3.3137-2.6863 6-6 6zm-9.517-6.9227c1.2974 4.0148 5.065 6.9227 9.517 6.9227v-4c-2.6663 0-4.9313-1.7406-5.7108-4.1527zm.0479.5685c.2668.1813.5384.3563.8146.5245l2.0811-3.416c-.2194-.1336-.4352-.2726-.6473-.4168zm-7.53093-8.6458c0 4.8225 3.79203 8.7581 8.55823 8.9893l.1938-3.9953c-2.6454-.1283-4.752-2.3157-4.752-4.994zm.05489-.9981c-.03632.3284-.05489.6615-.05489.9981h4.00003c0-.1894.0104-.3757.0306-.5583zm2.97504-1.5195c-1.2165-.6904-2.02993-1.9927-2.02993-3.4824h-4c0 2.9872 1.63817 5.5892 4.05559 6.9612zm-2.02993-3.4824c0-.8584.26815-1.6483.72538-2.298l-3.27121-2.302c-.916 1.3017-1.45417 2.891-1.45417 4.6zm-5-8c0 2.427 1.08325 4.6033 2.7857 6.0674l2.60815-3.0328c-.85653-.7366-1.39385-1.8218-1.39385-3.0346zm3.69186-6.7418c-2.21591 1.4182-3.69186 3.907-3.69186 6.7418h4c0-1.4142.73243-2.6587 1.84813-3.3727zm-1.69186-1.2582c0 1.4224.37295 2.7636 1.02786 3.9251l3.48427-1.9647c-.3256-.5775-.5121-1.2441-.5121-1.9604zm3.03939-6.2766c-1.84787 1.4619-3.03939 3.7307-3.03939 6.2766h4.00003c0-1.2715.5909-2.4037 1.5211-3.1396z" fill="#000" mask="url(#a)"/><g stroke="#000" stroke-linecap="round" stroke-linejoin="round" stroke-width="2"><path d="m21.1962 40c0 .6566-.1294 1.3068-.3806 1.9134-.2513.6066-.6196 1.1578-1.0839 1.6221s-1.0155.8326-1.6221 1.0839-1.2568.3806-1.9134.3806"/><path d="m26.5263 32.5c.6065 1.0505.8104 2.2857.5738 3.4755-.2367 1.1897-.8978 2.2528-1.8601 2.9913-.9624.7384-2.1604 1.1018-3.3708 1.0225-1.2105-.0793-2.3508-.596-3.2086-1.4538"/><path d="m14.2464 12.0503c.7592-.7593 1.683-1.3337 2.6997-1.6788s2.0992-.45176 3.1637-.3116c1.0646.1401 2.0826.5233 2.9754 1.1198.8927.5965 1.6363 1.3904 2.1731 2.3203"/><path d="m14.1153 27.9993c-.7083-.0114-1.406-.1732-2.0469-.4746-.641-.3015-1.2106-.7357-1.6712-1.2738-.4605-.5382-.80143-1.1681-1.00018-1.8479-.19875-.6799-.25078-1.3942-.15265-2.0957s.34419-1.3741.72187-1.9734c.37766-.5992.87836-1.1113 1.46886-1.5024.5906-.3912 1.2575-.6524 1.9566-.7664.699-.1139 1.4144-.0781 2.0985.1053"/><path d="m19.7427 50.4328c-1.3518.6336-2.8914.7405-4.3178.2998-1.4265-.4408-2.6374-1.3975-3.3961-2.6834"/><path d="m24 23c0 .6566-.1293 1.3068-.3806 1.9134s-.6196 1.1578-1.0839 1.6221-1.0155.8326-1.6221 1.0839-1.2568.3806-1.9134.3806"/><path d="m29.5 45.6699c.7601.4388 1.3913 1.07 1.8301 1.8301.4389.7601.6699 1.6223.6699 2.5"/></g><path clip-rule="evenodd" d="m53.7197 18.2919c-.2172-.5632-.4602-1.1134-.7275-1.6495-.1684-3.8269-3.0253-6.95541-6.7283-7.54313-3.0101-1.96025-6.604-3.09927-10.4639-3.09927-2.651 0-4.8 2.14903-4.8 4.8v37.6545c0 .2481.0138.4929.0407.7338-.0269.2669-.0407.5377-.0407.8117 0 4.4183 3.5817 8 8 8 3.5591 0 6.5754-2.3242 7.6139-5.5377.2478-.1509.4915-.3079.731-.4707 3.7058-.1797 6.6551-3.2412 6.6551-6.9916 0-.263-.0145-.5227-.0428-.7782 1.817-1.0312 3.0428-2.9833 3.0428-5.2218 0-1.2837-.4032-2.4733-1.0898-3.449 1.2795-1.1004 2.0898-2.7311 2.0898-4.551 0-2.1245-1.1042-3.9911-2.77-5.0573.4903-.8694.77-1.8734.77-2.9427 0-1.9087-.8912-3.6092-2.2803-4.7081z" fill="#c4f0f5" fill-rule="evenodd"/><path d="m52.9922 16.6424-1.7898.8926-.1896-.3802-.0187-.4245zm.7275 1.6495-1.2409 1.5685-.4284-.339-.1967-.5097zm-7.4558-9.19263-.3135 1.97523-.4209-.0667-.3571-.2326zm-15.2232 40.08903 1.9876-.2217.0236.211-.0213.2112zm15.5732 3.274-1.9031-.615.2284-.7066.6341-.3864zm.731-.4707-1.1243-1.6541.4654-.3162.562-.0273zm6.6123-7.7698-1.9878.2199-.1448-1.3092 1.1455-.6501zm1.953-8.6708-1.6356 1.151-1.0444-1.4841 1.376-1.1833zm-.6802-9.6083-1.0781 1.6846-1.5929-1.0195.9289-1.6474zm-.4481-10.1929c.2953.5921.5638 1.2.8038 1.8222l-3.732 1.4397c-.1944-.5041-.4119-.9967-.6513-1.4767zm-8.2045-8.6258c4.631.73499 8.2022 4.6434 8.4128 9.4305l-3.9961.1758c-.1261-2.8667-2.2686-5.2153-5.0437-5.6558zm-10.7774-3.124c4.259 0 8.2304 1.25802 11.5553 3.42333l-2.1829 3.35187c-2.6952-1.75519-5.9116-2.7752-9.3724-2.7752zm-6.8 6.8c0-3.75554 3.0445-6.8 6.8-6.8v4c-1.5464 0-2.8 1.2536-2.8 2.8zm0 37.6545v-37.6545h4v37.6545zm.053.9556c-.0351-.3144-.053-.6333-.053-.9556h4c0 .1739.0097.3447.0283.5121zm-.053.5899c0-.3411.0171-.6788.0507-1.0122l3.9799.401c-.0202.2004-.0306.4043-.0306.6112zm10 10c-5.5228 0-10-4.4772-10-10h4c0 3.3137 2.6863 6 6 6zm9.517-6.9227c-1.2974 4.0148-5.065 6.9227-9.517 6.9227v-4c2.6663 0 4.9313-1.7406 5.7108-4.1527zm-.0479.5685c-.2668.1813-.5385.3563-.8146.5245l-2.0812-3.416c.2194-.1336.4353-.2726.6473-.4168zm7.5309-8.6458c0 4.8225-3.792 8.7581-8.5582 8.9893l-.1938-3.9953c2.6453-.1283 4.752-2.3157 4.752-4.994zm-.0549-.9981c.0363.3284.0549.6615.0549.9981h-4c0-.1894-.0104-.3757-.0306-.5583zm-2.975-1.5195c1.2165-.6904 2.0299-1.9927 2.0299-3.4824h4c0 2.9872-1.6382 5.5892-4.0556 6.9612zm2.0299-3.4824c0-.8584-.2682-1.6483-.7254-2.298l3.2712-2.302c.916 1.3017 1.4542 2.891 1.4542 4.6zm5-8c0 2.427-1.0833 4.6033-2.7857 6.0674l-2.6081-3.0328c.8565-.7366 1.3938-1.8218 1.3938-3.0346zm-3.6919-6.7418c2.2159 1.4182 3.6919 3.907 3.6919 6.7418h-4c0-1.4142-.7324-2.6587-1.8481-3.3727zm1.6919-1.2582c0 1.4224-.373 2.7636-1.0279 3.9251l-3.4842-1.9647c.3256-.5775.5121-1.2441.5121-1.9604zm-3.0394-6.2766c1.8479 1.4619 3.0394 3.7307 3.0394 6.2766h-4c0-1.2715-.591-2.4037-1.5212-3.1396z" fill="#000" mask="url(#b)"/><path d="m43 39c0 .6566.1293 1.3068.3806 1.9134s.6196 1.1578 1.0839 1.6221 1.0155.8326 1.6221 1.0839 1.2568.3806 1.9134.3806" stroke="#000" stroke-linecap="round" stroke-linejoin="round" stroke-width="2"/><path d="m40 23c0 .6566.1293 1.3068.3806 1.9134s.6196 1.1578 1.0839 1.6221 1.0155.8326 1.6221 1.0839 1.2568.3806 1.9134.3806" stroke="#000" stroke-linecap="round" stroke-linejoin="round" stroke-width="2"/><path d="m37.6699 31.5c-.6065 1.0505-.8105 2.2857-.5738 3.4755.2366 1.1897.8977 2.2528 1.8601 2.9913.9624.7384 2.1604 1.1018 3.3708 1.0225 1.2105-.0793 2.3508-.596 3.2085-1.4538" stroke="#000" stroke-linecap="round" stroke-linejoin="round" stroke-width="2"/><path d="m34.5 19.6699c-.7601.4388-1.3913 1.07-1.8301 1.8301-.4389.7601-.6699 1.6223-.6699 2.5" stroke="#000" stroke-linecap="round" stroke-linejoin="round" stroke-width="2"/><path d="m49.9497 12.0503c-.7592-.7593-1.6829-1.3337-2.6996-1.6788-1.0168-.3451-2.0993-.45176-3.1638-.3116-1.0645.1401-2.0825.5233-2.9753 1.1198s-1.6363 1.3904-2.1732 2.3203" stroke="#000" stroke-linecap="round" stroke-linejoin="round" stroke-width="2"/><path d="m50.0809 27.9993c.7082-.0114 1.4059-.1732 2.0469-.4746.641-.3015 1.2106-.7357 1.6711-1.2738.4606-.5382.8015-1.1681 1.0002-1.8479.1988-.6799.2508-1.3942.1527-2.0957s-.3442-1.3741-.7219-1.9734c-.3777-.5992-.8783-1.1113-1.4689-1.5024-.5905-.3912-1.2574-.6524-1.9565-.7664-.6991-.1139-1.4144-.0781-2.0986.1053" stroke="#000" stroke-linecap="round" stroke-linejoin="round" stroke-width="2"/><path d="m44.4534 50.4328c1.3519.6336 2.8914.7405 4.3179.2998 1.4265-.4408 2.6374-1.3975 3.3961-2.6834" stroke="#000" stroke-linecap="round" stroke-linejoin="round" stroke-width="2"/></svg>

<svg width="64" height="64" viewBox="0 0 64 64" fill="none" xmlns="http://www.w3.org/2000/svg">
<mask id="path-1-inside-1_1_8007" fill="white">
<path fill-rule="evenodd" clip-rule="evenodd" d="M10.4765 18.2919C10.6937 17.7287 10.9367 17.1785 11.204 16.6424C11.3723 12.8155 14.2293 9.68699 17.9323 9.09927C20.9424 7.13902 24.5363 6 28.3962 6C31.0471 6 33.1962 8.14903 33.1962 10.8V48.4545C33.1962 48.7026 33.1824 48.9474 33.1555 49.1883C33.1824 49.4552 33.1962 49.726 33.1962 50C33.1962 54.4183 29.6144 58 25.1962 58C21.637 58 18.6207 55.6758 17.5823 52.4623C17.3345 52.3114 17.0908 52.1544 16.8513 51.9916C13.1455 51.8119 10.1962 48.7504 10.1962 45C10.1962 44.737 10.2107 44.4773 10.2389 44.2218C8.42197 43.1906 7.19617 41.2385 7.19617 39C7.19617 37.7163 7.59933 36.5267 8.28594 35.551C7.00645 34.4506 6.19617 32.8199 6.19617 31C6.19617 28.8755 7.30036 27.0089 8.96615 25.9427C8.47589 25.0733 8.19617 24.0693 8.19617 23C8.19617 21.0913 9.08741 19.3908 10.4765 18.2919Z"/>
</mask>
<path fill-rule="evenodd" clip-rule="evenodd" d="M10.4765 18.2919C10.6937 17.7287 10.9367 17.1785 11.204 16.6424C11.3723 12.8155 14.2293 9.68699 17.9323 9.09927C20.9424 7.13902 24.5363 6 28.3962 6C31.0471 6 33.1962 8.14903 33.1962 10.8V48.4545C33.1962 48.7026 33.1824 48.9474 33.1555 49.1883C33.1824 49.4552 33.1962 49.726 33.1962 50C33.1962 54.4183 29.6144 58 25.1962 58C21.637 58 18.6207 55.6758 17.5823 52.4623C17.3345 52.3114 17.0908 52.1544 16.8513 51.9916C13.1455 51.8119 10.1962 48.7504 10.1962 45C10.1962 44.737 10.2107 44.4773 10.2389 44.2218C8.42197 43.1906 7.19617 41.2385 7.19617 39C7.19617 37.7163 7.59933 36.5267 8.28594 35.551C7.00645 34.4506 6.19617 32.8199 6.19617 31C6.19617 28.8755 7.30036 27.0089 8.96615 25.9427C8.47589 25.0733 8.19617 24.0693 8.19617 23C8.19617 21.0913 9.08741 19.3908 10.4765 18.2919Z" fill="white"/>
<path d="M11.204 16.6424L12.9938 17.535L13.1834 17.1548L13.2021 16.7303L11.204 16.6424ZM10.4765 18.2919L11.7173 19.8604L12.1458 19.5214L12.3424 19.0117L10.4765 18.2919ZM17.9323 9.09927L18.2458 11.0745L18.6666 11.0078L19.0237 10.7752L17.9323 9.09927ZM33.1555 49.1883L31.1678 48.9666L31.1443 49.1776L31.1656 49.3888L33.1555 49.1883ZM17.5823 52.4623L19.4854 51.8473L19.257 51.1407L18.6228 50.7543L17.5823 52.4623ZM16.8513 51.9916L17.9755 50.3375L17.5102 50.0213L16.9482 49.994L16.8513 51.9916ZM10.2389 44.2218L12.2268 44.4417L12.3716 43.1325L11.2261 42.4824L10.2389 44.2218ZM8.28594 35.551L9.92155 36.702L10.9659 35.2179L9.59002 34.0346L8.28594 35.551ZM8.96615 25.9427L10.0443 27.6273L11.6372 26.6078L10.7083 24.9604L8.96615 25.9427ZM9.41425 15.7498C9.11896 16.3419 8.8505 16.9498 8.61048 17.572L12.3424 19.0117C12.5369 18.5076 12.7544 18.015 12.9938 17.535L9.41425 15.7498ZM17.6188 7.124C12.9878 7.85899 9.41652 11.7674 9.20595 16.5545L13.2021 16.7303C13.3282 13.8636 15.4707 11.515 18.2458 11.0745L17.6188 7.124ZM28.3962 4C24.1371 4 20.1658 5.25802 16.8409 7.42333L19.0237 10.7752C21.7189 9.02001 24.9354 8 28.3962 8V4ZM35.1962 10.8C35.1962 7.04446 32.1517 4 28.3962 4V8C29.9426 8 31.1962 9.2536 31.1962 10.8H35.1962ZM35.1962 48.4545V10.8H31.1962V48.4545H35.1962ZM35.1432 49.4101C35.1782 49.0957 35.1962 48.7768 35.1962 48.4545H31.1962C31.1962 48.6284 31.1865 48.7992 31.1678 48.9666L35.1432 49.4101ZM35.1962 50C35.1962 49.6589 35.179 49.3212 35.1454 48.9878L31.1656 49.3888C31.1858 49.5892 31.1962 49.7931 31.1962 50H35.1962ZM25.1962 60C30.719 60 35.1962 55.5228 35.1962 50H31.1962C31.1962 53.3137 28.5099 56 25.1962 56V60ZM15.6792 53.0773C16.9766 57.0921 20.7442 60 25.1962 60V56C22.5299 56 20.2649 54.2594 19.4854 51.8473L15.6792 53.0773ZM15.7271 53.6458C15.9939 53.8271 16.2655 54.0021 16.5417 54.1703L18.6228 50.7543C18.4034 50.6207 18.1876 50.4817 17.9755 50.3375L15.7271 53.6458ZM8.19617 45C8.19617 49.8225 11.9882 53.7581 16.7544 53.9893L16.9482 49.994C14.3028 49.8657 12.1962 47.6783 12.1962 45H8.19617ZM8.25106 44.0019C8.21474 44.3303 8.19617 44.6634 8.19617 45H12.1962C12.1962 44.8106 12.2066 44.6243 12.2268 44.4417L8.25106 44.0019ZM11.2261 42.4824C10.0096 41.792 9.19617 40.4897 9.19617 39H5.19617C5.19617 41.9872 6.83434 44.5892 9.25176 45.9612L11.2261 42.4824ZM9.19617 39C9.19617 38.1416 9.46432 37.3517 9.92155 36.702L6.65034 34.4C5.73434 35.7017 5.19617 37.291 5.19617 39H9.19617ZM4.19617 31C4.19617 33.427 5.27942 35.6033 6.98187 37.0674L9.59002 34.0346C8.73349 33.298 8.19617 32.2128 8.19617 31H4.19617ZM7.88803 24.2582C5.67212 25.6764 4.19617 28.1652 4.19617 31H8.19617C8.19617 29.5858 8.9286 28.3413 10.0443 27.6273L7.88803 24.2582ZM6.19617 23C6.19617 24.4224 6.56912 25.7636 7.22403 26.9251L10.7083 24.9604C10.3827 24.3829 10.1962 23.7163 10.1962 23H6.19617ZM9.23556 16.7234C7.38769 18.1853 6.19617 20.4541 6.19617 23H10.1962C10.1962 21.7285 10.7871 20.5963 11.7173 19.8604L9.23556 16.7234Z" fill="black" mask="url(#path-1-inside-1_1_8007)"/>
<path d="M21.1962 40C21.1962 40.6566 21.0668 41.3068 20.8156 41.9134C20.5643 42.52 20.196 43.0712 19.7317 43.5355C19.2674 43.9998 18.7162 44.3681 18.1096 44.6194C17.503 44.8707 16.8528 45 16.1962 45" stroke="black" stroke-width="2" stroke-linecap="round" stroke-linejoin="round"/>
<path d="M26.5263 32.5C27.1328 33.5505 27.3367 34.7857 27.1001 35.9755C26.8634 37.1652 26.2023 38.2283 25.24 38.9668C24.2776 39.7052 23.0796 40.0686 21.8692 39.9893C20.6587 39.91 19.5184 39.3933 18.6606 38.5355" stroke="black" stroke-width="2" stroke-linecap="round" stroke-linejoin="round"/>
<path d="M14.2464 12.0503C15.0056 11.291 15.9294 10.7166 16.9461 10.3715C17.9628 10.0264 19.0453 9.91974 20.1098 10.0599C21.1744 10.2 22.1924 10.5832 23.0852 11.1797C23.9779 11.7762 24.7215 12.5701 25.2583 13.5" stroke="black" stroke-width="2" stroke-linecap="round" stroke-linejoin="round"/>
<path d="M14.1153 27.9993C13.407 27.9879 12.7093 27.8261 12.0684 27.5247C11.4274 27.2232 10.8578 26.789 10.3972 26.2509C9.9367 25.7127 9.59577 25.0828 9.39702 24.403C9.19827 23.7231 9.14624 23.0088 9.24437 22.3073C9.3425 21.6058 9.58856 20.9332 9.96624 20.3339C10.3439 19.7347 10.8446 19.2226 11.4351 18.8315C12.0257 18.4403 12.6926 18.1791 13.3917 18.0651C14.0907 17.9512 14.8061 17.987 15.4902 18.1704" stroke="black" stroke-width="2" stroke-linecap="round" stroke-linejoin="round"/>
<path d="M19.7427 50.4328C18.3909 51.0664 16.8513 51.1733 15.4249 50.7326C13.9984 50.2918 12.7875 49.3351 12.0288 48.0492" stroke="black" stroke-width="2" stroke-linecap="round" stroke-linejoin="round"/>
<path d="M24 23C24 23.6566 23.8707 24.3068 23.6194 24.9134C23.3681 25.52 22.9998 26.0712 22.5355 26.5355C22.0712 26.9998 21.52 27.3681 20.9134 27.6194C20.3068 27.8707 19.6566 28 19 28" stroke="black" stroke-width="2" stroke-linecap="round" stroke-linejoin="round"/>
<path d="M29.5 45.6699C30.2601 46.1087 30.8913 46.7399 31.3301 47.5C31.769 48.2601 32 49.1223 32 50" stroke="black" stroke-width="2" stroke-linecap="round" stroke-linejoin="round"/>
<mask id="path-10-inside-2_1_8007" fill="white">
<path fill-rule="evenodd" clip-rule="evenodd" d="M53.7197 18.2919C53.5025 17.7287 53.2595 17.1785 52.9922 16.6424C52.8238 12.8155 49.9669 9.68699 46.2639 9.09927C43.2538 7.13902 39.6599 6 35.8 6C33.149 6 31 8.14903 31 10.8V48.4545C31 48.7026 31.0138 48.9474 31.0407 49.1883C31.0138 49.4552 31 49.726 31 50C31 54.4183 34.5817 58 39 58C42.5591 58 45.5754 55.6758 46.6139 52.4623C46.8617 52.3114 47.1054 52.1544 47.3449 51.9916C51.0507 51.8119 54 48.7504 54 45C54 44.737 53.9855 44.4773 53.9572 44.2218C55.7742 43.1906 57 41.2385 57 39C57 37.7163 56.5968 36.5267 55.9102 35.551C57.1897 34.4506 58 32.8199 58 31C58 28.8755 56.8958 27.0089 55.23 25.9427C55.7203 25.0733 56 24.0693 56 23C56 21.0913 55.1088 19.3908 53.7197 18.2919Z"/>
</mask>
<path fill-rule="evenodd" clip-rule="evenodd" d="M53.7197 18.2919C53.5025 17.7287 53.2595 17.1785 52.9922 16.6424C52.8238 12.8155 49.9669 9.68699 46.2639 9.09927C43.2538 7.13902 39.6599 6 35.8 6C33.149 6 31 8.14903 31 10.8V48.4545C31 48.7026 31.0138 48.9474 31.0407 49.1883C31.0138 49.4552 31 49.726 31 50C31 54.4183 34.5817 58 39 58C42.5591 58 45.5754 55.6758 46.6139 52.4623C46.8617 52.3114 47.1054 52.1544 47.3449 51.9916C51.0507 51.8119 54 48.7504 54 45C54 44.737 53.9855 44.4773 53.9572 44.2218C55.7742 43.1906 57 41.2385 57 39C57 37.7163 56.5968 36.5267 55.9102 35.551C57.1897 34.4506 58 32.8199 58 31C58 28.8755 56.8958 27.0089 55.23 25.9427C55.7203 25.0733 56 24.0693 56 23C56 21.0913 55.1088 19.3908 53.7197 18.2919Z" fill="#C4F0F5"/>
<path d="M52.9922 16.6424L51.2024 17.535L51.0128 17.1548L50.9941 16.7303L52.9922 16.6424ZM53.7197 18.2919L52.4788 19.8604L52.0504 19.5214L51.8537 19.0117L53.7197 18.2919ZM46.2639 9.09927L45.9504 11.0745L45.5295 11.0078L45.1724 10.7752L46.2639 9.09927ZM31.0407 49.1883L33.0283 48.9666L33.0519 49.1776L33.0306 49.3888L31.0407 49.1883ZM46.6139 52.4623L44.7108 51.8473L44.9392 51.1407L45.5733 50.7543L46.6139 52.4623ZM47.3449 51.9916L46.2206 50.3375L46.686 50.0213L47.248 49.994L47.3449 51.9916ZM53.9572 44.2218L51.9694 44.4417L51.8246 43.1325L52.9701 42.4824L53.9572 44.2218ZM55.9102 35.551L54.2746 36.702L53.2302 35.2179L54.6062 34.0346L55.9102 35.551ZM55.23 25.9427L54.1519 27.6273L52.559 26.6078L53.4879 24.9604L55.23 25.9427ZM54.7819 15.7498C55.0772 16.3419 55.3457 16.9498 55.5857 17.572L51.8537 19.0117C51.6593 18.5076 51.4418 18.015 51.2024 17.535L54.7819 15.7498ZM46.5774 7.124C51.2084 7.85899 54.7796 11.7674 54.9902 16.5545L50.9941 16.7303C50.868 13.8636 48.7255 11.515 45.9504 11.0745L46.5774 7.124ZM35.8 4C40.059 4 44.0304 5.25802 47.3553 7.42333L45.1724 10.7752C42.4772 9.02001 39.2608 8 35.8 8V4ZM29 10.8C29 7.04446 32.0445 4 35.8 4V8C34.2536 8 33 9.2536 33 10.8H29ZM29 48.4545V10.8H33V48.4545H29ZM29.053 49.4101C29.0179 49.0957 29 48.7768 29 48.4545H33C33 48.6284 33.0097 48.7992 33.0283 48.9666L29.053 49.4101ZM29 50C29 49.6589 29.0171 49.3212 29.0507 48.9878L33.0306 49.3888C33.0104 49.5892 33 49.7931 33 50H29ZM39 60C33.4772 60 29 55.5228 29 50H33C33 53.3137 35.6863 56 39 56V60ZM48.517 53.0773C47.2196 57.0921 43.452 60 39 60V56C41.6663 56 43.9313 54.2594 44.7108 51.8473L48.517 53.0773ZM48.4691 53.6458C48.2023 53.8271 47.9306 54.0021 47.6545 54.1703L45.5733 50.7543C45.7927 50.6207 46.0086 50.4817 46.2206 50.3375L48.4691 53.6458ZM56 45C56 49.8225 52.208 53.7581 47.4418 53.9893L47.248 49.994C49.8933 49.8657 52 47.6783 52 45H56ZM55.9451 44.0019C55.9814 44.3303 56 44.6634 56 45H52C52 44.8106 51.9896 44.6243 51.9694 44.4417L55.9451 44.0019ZM52.9701 42.4824C54.1866 41.792 55 40.4897 55 39H59C59 41.9872 57.3618 44.5892 54.9444 45.9612L52.9701 42.4824ZM55 39C55 38.1416 54.7318 37.3517 54.2746 36.702L57.5458 34.4C58.4618 35.7017 59 37.291 59 39H55ZM60 31C60 33.427 58.9167 35.6033 57.2143 37.0674L54.6062 34.0346C55.4627 33.298 56 32.2128 56 31H60ZM56.3081 24.2582C58.524 25.6764 60 28.1652 60 31H56C56 29.5858 55.2676 28.3413 54.1519 27.6273L56.3081 24.2582ZM58 23C58 24.4224 57.627 25.7636 56.9721 26.9251L53.4879 24.9604C53.8135 24.3829 54 23.7163 54 23H58ZM54.9606 16.7234C56.8085 18.1853 58 20.4541 58 23H54C54 21.7285 53.409 20.5963 52.4788 19.8604L54.9606 16.7234Z" fill="black" mask="url(#path-10-inside-2_1_8007)"/>
<path d="M43 39C43 39.6566 43.1293 40.3068 43.3806 40.9134C43.6319 41.52 44.0002 42.0712 44.4645 42.5355C44.9288 42.9998 45.48 43.3681 46.0866 43.6194C46.6932 43.8707 47.3434 44 48 44" stroke="black" stroke-width="2" stroke-linecap="round" stroke-linejoin="round"/>
<path d="M40 23C40 23.6566 40.1293 24.3068 40.3806 24.9134C40.6319 25.52 41.0002 26.0712 41.4645 26.5355C41.9288 26.9998 42.48 27.3681 43.0866 27.6194C43.6932 27.8707 44.3434 28 45 28" stroke="black" stroke-width="2" stroke-linecap="round" stroke-linejoin="round"/>
<path d="M37.6699 31.5C37.0634 32.5505 36.8594 33.7857 37.0961 34.9755C37.3327 36.1652 37.9938 37.2283 38.9562 37.9668C39.9186 38.7052 41.1166 39.0686 42.327 38.9893C43.5375 38.91 44.6778 38.3933 45.5355 37.5355" stroke="black" stroke-width="2" stroke-linecap="round" stroke-linejoin="round"/>
<path d="M34.5 19.6699C33.7399 20.1087 33.1087 20.7399 32.6699 21.5C32.231 22.2601 32 23.1223 32 24" stroke="black" stroke-width="2" stroke-linecap="round" stroke-linejoin="round"/>
<path d="M49.9497 12.0503C49.1905 11.291 48.2668 10.7166 47.2501 10.3715C46.2333 10.0264 45.1508 9.91974 44.0863 10.0599C43.0218 10.2 42.0038 10.5832 41.111 11.1797C40.2182 11.7762 39.4747 12.5701 38.9378 13.5" stroke="black" stroke-width="2" stroke-linecap="round" stroke-linejoin="round"/>
<path d="M50.0809 27.9993C50.7891 27.9879 51.4868 27.8261 52.1278 27.5247C52.7688 27.2232 53.3384 26.789 53.7989 26.2509C54.2595 25.7127 54.6004 25.0828 54.7991 24.403C54.9979 23.7231 55.0499 23.0088 54.9518 22.3073C54.8537 21.6058 54.6076 20.9332 54.2299 20.3339C53.8522 19.7347 53.3516 19.2226 52.761 18.8315C52.1705 18.4403 51.5036 18.1791 50.8045 18.0651C50.1054 17.9512 49.3901 17.987 48.7059 18.1704" stroke="black" stroke-width="2" stroke-linecap="round" stroke-linejoin="round"/>
<path d="M44.4534 50.4328C45.8053 51.0664 47.3448 51.1733 48.7713 50.7326C50.1978 50.2918 51.4087 49.3351 52.1674 48.0492" stroke="black" stroke-width="2" stroke-linecap="round" stroke-linejoin="round"/>
</svg>
